X:1
T:Eine Kleine Nachtmusik
T:Eine Kleine Nachtmusik
T:K.525
T:W. A. Mozart
C:W. A. Mozart
%%score 1 2 3 4
L:1/8
M:4/4
K:G
V:1 treble nm="Violin" snm="Vln."
V:2 treble nm="Violin" snm="Vln."
V:3 alto nm="Viola" snm="Vla."
V:4 bass nm="Violoncello" snm="Vc."
V:1
!f! [DBg]2 z d g2 z d | gdgb d'2 z2 | c'2 z a c'2 z a | c'afa d2 z2 | [DBg] z g3 (ba).g"^A" | %5
 (Tgf) f3 (ac').f | (ag) g3 (ba).g | (Tgf) f3 (ac').f | .g.g (g/f/e/f/) .g.g (b/a/g/a/) | %9
 .b.b (d'/c'/b/c'/) d'2 z2 |!p! (d4 e4) |{/d} c2 c2{/c} B2 B2 |{/B} A2 A2 (GF).E.F | %13
 G z A z B z z2 | (d4 e4) | (dc).c.c (cB).B.B | (BA).A.A (GFEF) | [G,G]4- [G,G]!p!(TG/F/4G/4 AF) | %18
 B4- B!p!TB/A/4B/4 cA | !//!d4"_cresc." !//!e2 !//!f2 | !//!g2 !//!a2 !//!b2 !//!^c'2 | %21
!f! d'3 a (^c'>a) (c'>a) | (d'3 a) (^c'>a) (c'>a) | d' [fd']2 [fd']2 [fd']2 ([fd'-] | %24
 [ed']) [ed']2 [ed']2 [ed']2 [ed'] | [e^c']ad'a c'ad'a | ^c'AAA A2 z2 |!p! (a3 (3g/f/e/ d) z b z | %28
 g z e z a z z2 | (f3 (3e/d/^c/ B) z g z | (f4 e2) z2 | z .a.a.a .a.a.a.a | .a.a.a.a .a.a.b.^c' | %33
 (^c'd') z .b (ba) z ^c | d2 z .a (d'^c'ba) | (Tba) z .a .a.a.a.a | (Tba) z a (d'^c'ba) | %37
 (Tba) z .a .a.a.a.a | (Tba) z2!f! [Bb]3 (3(a/g/f/ | g2) z2 [Aa]3 (3(g/f/e/ | %40
 f2) z2 (b^c'/d'/ c').b | (ba).f.a (ag).f.e | d2 z!p! .a (d'^c'ba) | (Tba) z .a .a.a.a.a | %44
 (Tba) z .a (d'^c'ba) | (Tba) z .a .a.a.a.a | (Tba) z2!f! [Bb]3 (3(a/g/f/ | %47
 g2) z2 [Aa]3 (3(g/f/e/ | f2) z2 (b^c'/d'/ c').b | (ba).f.a (ag).f.e | dAB^c dd (Ted/e/ | %51
 f)^cde ff (Tgf/g/ | a)a (T^a^g/a/ b2) z2 |!p! (B3 e) (d^cBA) | d z f z d z z2 :: %55
!f! [Dd]2 z A d2 z A | dAdf a2 z2 | a2 z f a2 z f | af^df B2 z2 | z2 z!p! g (c'bag) | %60
 (Tag) z .g .g.g.g.g | (Tag) z g (c'bag) | (Tag) z g gggg | (Tag) z g (c'bag) | (Ta^g) z g gggg | %65
 (Tba) z a (c'_bag) | (Tgf) z f ffff | (Tag) z _e (g=fed) | (Td^c) z c cccc | (Ted) z!f! (D EFGA | %70
 c_B) z (F GAB^c | ed) z!p! (d efga | _b2 =b2 c'2 ^c'2) | (d'8 | d'4) (Tf3 e/f/) | %75
!f! g2 z d g2 z d | gdgb d'2 z2 | c'2 z a c'2 z a | c'afa d2 z2 | [DBg] z g3 (ba).g | %80
 (Tgf) f3 (ac').f | (ag) g3 (ba).g | (Tgf) f3 (ac').f | .g.g (g/f/e/f/) gg (b/a/g/a/) | %84
 bb (d'/c'/b/c'/) d'2 z2 |!p! (d4 e4) |{/d} c2 c2{/c} B2 B2 |{/B} A2 A2 (GF).E.F | G z A z B z z2 | %89
 (d4 e4) | (dc).c.c (cB).B.B | (BA).A.A (GFEF) | [G,G]4- [G,G]!p!(TG/F/4G/4 AF) | %93
 (B4 B)!p!(TB/A/4B/4 cA) | !//!d4"_cresc." !//!e2 !//!f2 | !//!g2 !//!a2 !//!b2 !//!^c'2 | %96
!f! d'3 a (^c'>a) (c'>a) | (d'3 a) (^c'>a) (c'>a) | .d'.a.^c'.a .d'.a.c'.a | d'DDD D2 z2 | %100
!p! (d3 (3c/B/A/ G) z e z | c z A z d z z2 | (b3 (3a/g/f/ e) z c' z | (b4 a2) z2 | %104
 z .d'.d'.d' .d'.d'.d'.d' | .d'.d'.d'.d' (d'c'af) | (fg) z .e (ed) z .F | G2 z .d (gfed) | %108
 (Ted) z .d .d.d.d.d | (Ted) z .d (gfed) | (Ted) z .d .d.d.d.d | (Ted) z2!f! [Ee]3 (3(d/c/B/ | %112
 c2) z2 [Dd]3 (3(c/B/A/ | B2) z2 (ef/g/ f).e | (ed).B.d (dc).B.A | G2 z!p! .d (gfed) | %116
 (Ted) z .d .d.d.d.d | (Ted) z .d gfed | (Ted) z .d .d.d.d.d | (Ted) z2!f! e'3 (3(d'/c'/b/ | %120
 c'2) z2 [dd']3 (3(c'/b/a/ | b2) z2 (ef/g/ f).e | .d.g.b.d' (d'c').b.a | gDEF GG (TAG/A/ | %124
 B)FGA BB (TcB/c/ | d)d (T^d^c/d/ e2) z2 |!p! (E3 A) (GFED) | (d^c=cB d^c=cB) | (E3 A) (GFED) | %129
 (defg defg) | a2 z2!f!!f! [dd']2 z2 | [DBg]2 z d BGBd | gdgb d'2 [DAf]2 | [DBg]2 z d BGBd | %134
 gdgb d'2 [DAf]2 | [DBg]2 z2 [DBg]2 z2 | [DBg]2 [G,G]>[G,G] [G,G]2 z2 |] %137
V:2
!f! [DBg]2 z d g2 z d | gdgb d'2 z2 | c'2 z a c'2 z a | c'afa d2 z2 | %4
 [B,D]/[B,D]/[B,D]/[B,D]/ !//![B,D]2 !//![B,D]4 | !//![CD]4 !//![CD]4 | !//![B,D]4 !//![B,D]4 | %7
 !//![CD]4 !//![CD]4 | [B,D]2 cc dd (cB/A/) | GGFF G2 z2 |!p! (B4 c4) |{/B} A2 A2{/A} G2 G2 | %12
 E2 E2 C2 A,2 | D z F z G z z2 | (B4 c4) | (BA).A.A (AG).G.G | E2 EE C2 CC | %17
 B,4- B,!p!(TB,/A,/4B,/4 CA,) | G4- G!p!TG/F/4G/4 AF | !//!B4"_cresc." !//!c4 | %20
 !//!B2 !//!d4 !//!g2 |!f! !//!f4 !//!g4 | !//!f4 !//!g4 | [df] [df]2 [df]2 [df]2 ([d-f] | %24
 [de]) [de]2 [de]2 [de]2 [de] | !//![^ce]2 !//![df]2 !//![ce]2 !//![df]2 | [^ce]AAA A2 z2 | %27
!p! (A3 (3G/F/E/ D) z B z | G z E z A z z2 | (F3 (3E/D/^C/ B,) z G z | (F4 E2) z2 | %31
 (A3 (3G/F/E/ D) z B z | G z E z A z G z | (GF) z .g (gf) z G | FFGG AAFF | EEFF GGEE | FFGG AAFF | %37
 EEFF GGEE | F2 z2!f! ([Bf]4 | e2) z2 ([Ae]4 | d).f.g.a (ga/b/ a).g | (gf).d.f (fe).d.^c | %42
 d!p!FGG AAFF | EEFF GGEE | FFGG AAFF | EEFF GGEE | F2 z2!f! ([Bf]4 | e2) z2 ([Ae]4 | %48
 d).f.g.a (ga/b/ a).g | (gf).d.f (fe).d.^c | dAB^c dd (Ted/e/ | f)^cde ff (Tgf/g/ | %52
 a)a (T^a^g/a/ b2) z2 |!p! (G8 | F) z A z F z z2 ::!f! [Dd]2 z A d2 z A | dAdf a2 z2 | %57
 a2 z f a2 z f | af^df B2 z2 |!p! EE=FF GGEE | DDEE =FFDD | EE=FF GGEE | DDEE =FFDD | EE=FF GGEE | %64
 DDEE =FFDD | CCDD EECC | CCDD _EECC | _B,B,A,A, B,B,AA | _BBAA BBAG | F2 z!f! (D EFGA | %70
 c_B) z (F GAB^c | ed) z!p! (D EFGA | _B2 =B2 c2 ^c2) | .d.d(de) .c.c(cd) | .B.B(Bd) (dc).B.A | %75
!f! G2 z d g2 z d | gdgb d'2 z2 | c'2 z a c'2 z a | c'afa d2 z2 | !//![B,D]4 !//![B,D]4 | %80
 !//![CD]4 !//![CD]4 | !//![B,D]4 !//![B,D]4 | !//![CD]4 !//![CD]4 | [B,D]2 cc dd (cB/A/) | %84
 GGFF G2 z2 |!p! (B4 c4) |{/B} A2 A2{/A} G2 G2 | E2 E2 C2 A,2 | D z F z G z z2 | (B4 c4) | %90
 (BA).A.A (AG).G.G | E2 EE C2 CC | (B,4 B,)!p!(TB,/A,/4B,/4 CA,) | (G4 G)!p!(TG/F/4G/4 AF) | %94
 !//!B4"_cresc." !//!c4 | !//!B2 !//!d4 !//!g2 |!f! !//!f4 !//!g4 | !//!f4 !//!g4 | %98
 !//!f2 !//!g2 !//!f2 !//!g2 | fDDD D2 z2 |!p! (D3 (3C/B,/A,/ G,) z E z | C z A, z D z z2 | %102
 (B3 (3A/G/F/ E) z c z | (B4 A2) z2 | (d3 (3c/B/A/ G) z e z | c z A z d2 z c | (cB) z .c cB z .C | %107
 B,B,CC DDB,B, | A,A,B,B, CCA,A, | B,B,CC DDB,B, | A,A,B,B, CCA,A, | B,2 z2!f! ([EB]4 | %112
 A2) z2 ([DA]4 | G).B.c.d (cd/e/ d).c | (cB).G.B (BA).G.F | G!p!B,CC DDB,B, | A,A,B,B, CCA,A, | %117
 B,Bcc ddBB | AABB ccAA | B2 z2!f! (b4 | a2) z2 (a4 | g).B.c.d (cd/e/ d).c | .B.d.g.b (ba).g.f | %123
 gDEF GG (TAG/A/ | B)FGA BB (TcB/c/ | d)d (T^d^c/d/ e2) z2 |!p! (C8 | B,2) z2 z4 | (C8 | %129
 B,2) z2 B2 z2 | e2 z2!f!!f! [cf]2 z2 | !//![B,D]4 !//![B,D]4 | !//![B,D]4 !//![B,D]2 !//![CD]2 | %133
 !//![B,D]4 !//![B,D]4 | !//![B,D]4 !//![B,D]2 !//![CD]2 | [B,D]2 z2 [DBg]2 z2 | %136
 [DBg]2 [G,G]>[G,G] [G,G]2 z2 |] %137
V:3
!f! G2 z D G2 z D | GDGB d2 z2 | c2 z A c2 z A | cAFA D2 z2 | GGGG GGGG | AAAA (Ac)(FA) | %6
 GGGG GGGG | AAAA (Ac)(FA) | !//!D4 !//!D4 | !//!D4 D2 z2 | z8 |!p! (F,4 G,4) | C2 C2 A,2 D,2 | %13
 D, z D z D2 z2 | z8 | F4 G4 | C2 CC A,2 A,A, | G,G,G,G,!p! G,G,G,G, | G,G,G,G,!p! G,G,G,G, | %19
 G,GGG"_cresc." GGAA | GGFF GGEE |!f! !//![DA]4 !//![EA]4 | !//![DA]4 !//![EA]4 | FGAG FGAF | %24
 BAGA BA^GB | AAAA AAAA | AA,A,A, A,2 z2 | z4 z2!p! F z | B, z G z E z ^C z | z2 (E2 D) z E z | %30
 (D4 ^C2) z2 | z2 (^C2 D) z F z | B, z G, z E, z E z | (ED) z2 z4 | DDEE FFDD | ^CCDD EECC | %36
 DDEE FFDD | ^CCDD EECC | D!f!DFE ^DB,^CD | EGED ^CA,B,C | Dddd dddd | (dA).A.A AAAG | %42
 F!p!DEE FFDD | ^CCDD EECC | DDEE FFDD | ^CCDD EECC | D!f!DFE ^DB,^CD | EGED ^CA,B,C | Dddd dddd | %49
 (dA).A.A AAAG | FA,B,^C DDEE | F^CDE FFGG | AA^AA B2 z2 |!p! (E6 D^C) | D z D z D z z2 :: %55
!f! D2 z A, D2 z A, | DA,DF A2 z2 | A2 z F A2 z F | AF^DF B,2 z2 |!p! CCDD EECC | B,B,CC DDB,B, | %61
 CCDD EECC | B,B,CC DDB,B, | CCDD EECC | B,B,CC DDB,B, | A,A,B,B, CCA,A, | A,A,_B,B, CCA,A, | %67
 G,G,F,F, G,G,FF | GGFF GG,F,G, | A,2 z!f! (D, E,F,G,A, | C_B,) z (F, G,A,B,^C | ED) z2 z4 | z8 | %73
!p! .B.B(Bc) .A.A(AB) | .G.G(GB) (BA).G.D |!f! B,2 z D G2 z D | GDGB d2 z2 | c2 z A c2 z A | %78
 cAFA D2 z2 | GGGG GGGG | AAAA (Ac)(FA) | GGGG GGGG | AAAA (Ac)(FA) | !//!D4 !//!D4 | %84
 !//!D4 D2 z2 | z8 |!p! (F,4 G,4) | C2 C2 A,2 D,2 | D, z D z D2 z2 | z8 | (F4 G4) | %91
 C2 CC A,2 A,A, | G,G,G,G,!p! G,G,G,G, | G,G,G,G,!p! G,G,G,G, | G,GGG"_cresc." GGAA | GGFF GGEE | %96
!f! !//![DA]4 !//![EA]4 | !//![DA]4 !//![EA]4 | !//![DA]2 !//![EA]2 !//![DA]2 !//![EA]2 | %99
 [DA]D,D,D, D,2 z2 | z4 z2!p! B, z | E, z C z A, z F, z | z2 (A2 G) z A z | (G4 F2) z2 | %104
 z2 (F2 G) z B z | E z C z A,2 z A | (AG) z2 z4 | G,G,A,A, B,B,G,G, | F,F,G,G, A,A,F,F, | %109
 G,G,A,A, B,B,G,G, | F,F,G,G, A,A,F,F, | G,!f!GBA ^GEFG | AcAG FDEF | GGGG GGGG | (GD).D.D DDDC | %115
 B,!p!G,A,A, B,B,G,G, | F,F,G,G, A,A,F,F, | G,GAA BBGG | FFGG AAFF | G!f!GBA ^GEFG | AcAG FDEF | %121
 GGGG GGGG | GBdd dddc | BDEF GGAA | BF,G,A, B,B,CC | DD^DD E2 z2 |!p! (A,6 G,F,) | G,2 z2 z4 | %128
 (A,6 G,F,) | G,2 z2 G2 z2 | E2 z2!f!!f! [DA]2 z2 | !//!G,4 !//!G,4 | !//!G,4 !//!G,2 !//!A,2 | %133
 !//!G,4 !//!G,4 | !//!G,4 !//!G,2 !//!A,2 | G,B,DG BGdB | G2 G,>G, G,2 z2 |] %137
V:4
!f! G,2 z D, G,2 z D, | G,D,G,B, D2 z2 | C2 z A, C2 z A, | CA,F,A, D,2 z2 | G,G,G,G, G,G,G,G, | %5
 G,G,G,G, G,G,G,G, | G,G,G,G, G,G,G,G, | G,G,G,G, G,G,G,G, | G,G,A,A, B,B,F,F, | G,G,A,A, B,2 z2 | %10
 z8 |!p! (D,4 E,4) | C,2 C,2 D,2 D,2 | B,, z D, z G,2 z2 | z8 | D,4 E,4 | C,2 C,2 D,2 D,2 | %17
 G,G,G,G,!p! G,G,G,G, | G,G,G,G,!p! G,G,G,G, | G,G,G,G,"_cresc." G,G,G,G, | G,G,F,F, G,G,E,E, | %21
!f! D,8 | D,8 | D,E,F,E, D,E,F,D, | G,A,B,A, G,A,B,^G, | A,A,A,A, A,A,A,A, | A,A,,A,,A,, A,,2 z2 | %27
 z4 z2!p! ^D, z | E, z D, z ^C, z A,, z | z2 (^A,,2 B,,) z G,, z | A,,2 (A,3 ^G,=G,E,) | %31
 D, z E, z F, z ^D, z | E, z D, z ^C, z A,, z | B,, z G, z A, z A,, z | D,2 z2 z4 | A,,2 z2 z4 | %36
 D,2 z2 z4 | A,,2 z2 z4 | z!f! D,F,E, ^D,B,,^C,D, | E,G,E,D, ^C,A,,B,,C, | D,D,E,F, G,G,G,G, | %41
 A,A,A,A, A,,A,,A,,A,, | D,2 z2 z4 |!p! A,,2 z2 z4 | D,2 z2 z4 | A,,2 z2 z4 | %46
 z!f! D,F,E, ^D,B,,^C,D, | E,G,E,D, ^C,A,,B,,C, | D,D,E,F, G,G,G,G, | A,A,A,A, A,,A,,A,,A,, | %50
 D,A,,B,,^C, D,D,E,E, | F,^C,D,E, F,F,G,G, | A,A,^A,A, B,2 z2 |!p! (G,4 A,4) | D, z D, z D, z z2 :: %55
!f! D,2 z A,, D,2 z A,, | D,A,,D,F, A,2 z2 | A,2 z F, A,2 z F, | A,F,^D,F, B,,2 z2 |!p! C,2 z2 z4 | %60
 G,,2 z2 z4 | C,2 z2 z4 | G,,2 z2 z4 | C,2 z2 z4 | E,2 z2 z4 | A,,2 z2 z4 | D,2 z2 z4 | (_E,8 | %68
 _E,8) | D,2 z!f! (D, E,F,G,A, | C_B,) z (F, G,A,B,^C | ED) z2 z4 | z8 | z8 |!p! D,8 | %75
!f! G,2 z D, G,2 z D, | G,D,G,B, D2 z2 | C2 z A, C2 z A, | CA,F,A, D,2 z2 | G,G,G,G, G,G,G,G, | %80
 G,G,G,G, G,G,G,G, | G,G,G,G, G,G,G,G, | G,G,G,G, G,G,G,G, | G,G,A,A, B,B,F,F, | G,G,A,A, B,2 z2 | %85
 z8 |!p! (D,4 E,4) | C,2 C,2 D,2 D,2 | B,, z D, z G,2 z2 | z8 | (D,4 E,4) | C,2 C,2 D,2 D,2 | %92
 G,G,G,G,!p! G,G,G,G, | G,G,G,G,!p! G,G,G,G, | G,G,G,G,"_cresc." G,G,G,G, | G,G,F,F, G,G,E,E, | %96
!f! D,8 | D,8 | D,D,D,D, D,D,D,D, | D,D,D,D, D,2 z2 | z4 z2!p! ^G, z | A, z G, z F, z D, z | %102
 z2 (^D,2 E,) z C, z | D,2 (D3 ^C=CA,) | G, z A, z B, z ^G, z | A, z G, z F, z D, z | %106
 E, z C, z D, z D, z | G,,2 z2 z4 | D,2 z2 z4 | G,,2 z2 z4 | D,2 z2 z4 | z!f! G,B,A, ^G,E,F,G, | %112
 A,CA,G, F,D,E,F, | G,G,A,B, CCCC | DDDD D,D,D,D, | G,2 z2 z4 |!p! D,2 z2 z4 | G,2 z2 z4 | %118
 D,2 z2 z4 | z!f! G,B,A, ^G,E,F,G, | A,CA,G, F,D,E,F, | G,G,A,B, CCCC | DDDD D,D,D,D, | %123
 G,D,E,F, G,G,A,A, | B,F,G,A, B,B,CC | DD^DD E2 z2 |!p! (C,4 D,4) | G,,2 z2 z4 | (C,4 D,4) | %129
 G,,2 z2 z4 | C,2 z2!f! D,2 z2 | G,,G,,G,,G,, G,,G,,G,,G,, | G,,G,,G,,G,, G,,G,,G,,G,, | %133
 G,,G,,G,,G,, G,,G,,G,,G,, | G,,G,,G,,G,, G,,G,,G,,G,, | G,,B,,D,G, B,G,DB, | %136
 G,2 G,,>G,, G,,2 z2 |] %137

